src/Resource_Files/fluent/document-spellcheck.svg

<svg clip-rule="evenodd" fill-rule="evenodd" stroke-linejoin="round" stroke-miterlimit="2" viewBox="0 0 16 16" xmlns="http://www.w3.org/2000/svg"><g fill="#1abc9c" fill-rule="nonzero" transform="translate(-2 -2)"><path d="m4.943 3c.209.003.394.136.464.333l1.774 5c.092.26-.044.546-.304.638-.26.093-.546-.044-.638-.304l-.259-.728v.061h-2.25l-.264.681c-.099.257-.389.385-.646.285-.258-.099-.386-.389-.286-.646l1.935-5c.076-.195.265-.323.474-.32zm-.028 1.938-.798 2.062h1.53z"/><path d="m17.408 4.529c-.246-.686-.604-1.106-1.053-1.328-.41-.202-.833-.201-1.109-.201h-.027c-.554 0-.994.19-1.327.487-.322.288-.521.656-.646.99-.125.336-.186.665-.215.905-.015.121-.023.223-.027.296-.002.036-.003.066-.003.087l-.001.038v.022c0 .383 0 1.085.249 1.724.131.335.335.669.657.936.325.268.742.445 1.257.503.417.046 1.663.013 2.23-1.246.114-.252.002-.548-.25-.661s-.548-.001-.661.25c-.293.649-.93.694-1.208.663-.344-.039-.571-.149-.73-.28-.162-.134-.279-.313-.363-.529-.176-.449-.181-.981-.181-1.382v-.013c.001-.013.001-.033.003-.059.003-.053.008-.131.02-.226.024-.192.071-.439.16-.679.091-.241.214-.449.375-.593.151-.135.355-.233.661-.233.303 0 .509.008.694.098.157.078.37.257.554.769.093.26.379.395.639.301.26-.093.395-.379.302-.639z"/><path d="m11.473 5.836c.196-.267.32-.622.32-1.077 0-.376-.074-.696-.218-.961-.147-.267-.35-.449-.564-.57-.406-.228-.846-.228-1.008-.228h-1.503c-.276 0-.5.224-.5.5v5c0 .276.224.5.5.5h1.75c.218 0 .663-.035 1.07-.271.446-.26.798-.736.798-1.488 0-.383-.084-.71-.246-.977-.111-.183-.25-.322-.399-.428zm-.952-1.736c.069.039.13.093.176.178.049.089.096.236.096.481 0 .397-.15.543-.275.619-.164.099-.374.122-.495.122h-1.023v-1.5h1c.158 0 .361.01.521.1zm-1.157 2.4h.007.815c.187 0 .433.007.628.103.087.043.154.1.204.181.049.082.1.22.1.457 0 .384-.152.537-.301.623-.187.109-.427.136-.567.136h-1.25v-1.5z"/><path d="m13.751 10.817c.175-.214.143-.529-.071-.704-.213-.175-.528-.143-.703.07l-3.741 4.573-1.882-1.882c-.196-.195-.512-.195-.708 0-.195.195-.195.512 0 .707l2.273 2.273c.1.1.238.152.379.145s.272-.073.362-.182z"/></g></svg>

<?xml version="1.0" encoding="UTF-8" standalone="no"?>
<!DOCTYPE svg PUBLIC "-//W3C//DTD SVG 1.1//EN" "http://www.w3.org/Graphics/SVG/1.1/DTD/svg11.dtd">
<svg width="100%" height="100%" viewBox="0 0 16 16" version="1.1" xmlns="http://www.w3.org/2000/svg" xmlns:xlink="http://www.w3.org/1999/xlink" xml:space="preserve" xmlns:serif="http://www.serif.com/" style="fill-rule:evenodd;clip-rule:evenodd;stroke-linejoin:round;stroke-miterlimit:2;">
    <g transform="matrix(1,0,0,1,-2,-2)">
        <path d="M4.943,3C5.152,3.003 5.337,3.136 5.407,3.333L7.181,8.333C7.273,8.593 7.137,8.879 6.877,8.971C6.617,9.064 6.331,8.927 6.239,8.667L5.98,7.939L5.98,8L3.73,8L3.466,8.681C3.367,8.938 3.077,9.066 2.82,8.966C2.562,8.867 2.434,8.577 2.534,8.32L4.469,3.32C4.545,3.125 4.734,2.997 4.943,3ZM4.915,4.938L4.117,7L5.647,7L4.915,4.938Z" style="fill:rgb(26,188,156);fill-rule:nonzero;"/>
    </g>
    <g transform="matrix(1,0,0,1,-2,-2)">
        <path d="M17.408,4.529C17.162,3.843 16.804,3.423 16.355,3.201C15.945,2.999 15.522,3 15.246,3L15.219,3C14.665,3 14.225,3.19 13.892,3.487C13.57,3.775 13.371,4.143 13.246,4.477C13.121,4.813 13.06,5.142 13.031,5.382C13.016,5.503 13.008,5.605 13.004,5.678C13.002,5.714 13.001,5.744 13.001,5.765L13,5.803L13,5.825C13,6.208 13,6.91 13.249,7.549C13.38,7.884 13.584,8.218 13.906,8.485C14.231,8.753 14.648,8.93 15.163,8.988C15.58,9.034 16.826,9.001 17.393,7.742C17.507,7.49 17.395,7.194 17.143,7.081C16.891,6.968 16.595,7.08 16.482,7.331C16.189,7.98 15.552,8.025 15.274,7.994C14.93,7.955 14.703,7.845 14.544,7.714C14.382,7.58 14.265,7.401 14.181,7.185C14.005,6.736 14,6.204 14,5.803L14,5.79C14.001,5.777 14.001,5.757 14.003,5.731C14.006,5.678 14.011,5.6 14.023,5.505C14.047,5.313 14.094,5.066 14.183,4.826C14.274,4.585 14.397,4.377 14.558,4.233C14.709,4.098 14.913,4 15.219,4C15.522,4 15.728,4.008 15.913,4.098C16.07,4.176 16.283,4.355 16.467,4.867C16.56,5.127 16.846,5.262 17.106,5.168C17.366,5.075 17.501,4.789 17.408,4.529Z" style="fill:rgb(26,188,156);fill-rule:nonzero;"/>
    </g>
    <g transform="matrix(1,0,0,1,-2,-2)">
        <path d="M11.473,5.836C11.669,5.569 11.793,5.214 11.793,4.759C11.793,4.383 11.719,4.063 11.575,3.798C11.428,3.531 11.225,3.349 11.011,3.228C10.605,3 10.165,3 10.003,3L8.5,3C8.224,3 8,3.224 8,3.5L8,8.5C8,8.776 8.224,9 8.5,9L10.25,9C10.468,9 10.913,8.965 11.32,8.729C11.766,8.469 12.118,7.993 12.118,7.241C12.118,6.858 12.034,6.531 11.872,6.264C11.761,6.081 11.622,5.942 11.473,5.836ZM10.521,4.1C10.59,4.139 10.651,4.193 10.697,4.278C10.746,4.367 10.793,4.514 10.793,4.759C10.793,5.156 10.643,5.302 10.518,5.378C10.354,5.477 10.144,5.5 10.023,5.5L9,5.5L9,4L10,4C10.158,4 10.361,4.01 10.521,4.1ZM9.364,6.5L9.371,6.5L10.186,6.5C10.373,6.5 10.619,6.507 10.814,6.603C10.901,6.646 10.968,6.703 11.018,6.784C11.067,6.866 11.118,7.004 11.118,7.241C11.118,7.625 10.966,7.778 10.817,7.864C10.63,7.973 10.39,8 10.25,8L9,8L9,6.5L9.364,6.5Z" style="fill:rgb(26,188,156);fill-rule:nonzero;"/>
    </g>
    <g transform="matrix(1,0,0,1,-2,-2)">
        <path d="M13.751,10.817C13.926,10.603 13.894,10.288 13.68,10.113C13.467,9.938 13.152,9.97 12.977,10.183L9.236,14.756L7.354,12.874C7.158,12.679 6.842,12.679 6.646,12.874C6.451,13.069 6.451,13.386 6.646,13.581L8.919,15.854C9.019,15.954 9.157,16.006 9.298,15.999C9.439,15.992 9.57,15.926 9.66,15.817L13.751,10.817Z" style="fill:rgb(26,188,156);fill-rule:nonzero;"/>
    </g>
</svg>
